X:1177
T:Cock up they beaver Jemme
O:england
M:6/4
L:1/4
S:Henry Atkinson 1694/5 transcribed John Stokoe 1883
K:F Major
d|c2FA>GF|G>AGB2D|c2FA2G|FfBABc|dcdfcA|G>AGB2f|c2BA2G|FfcA2F:||:FfcA/2B/
2cA|GgdB2G|FfcA/2B/2cA|FfBABc|B/2A/2B/2c/2d/2e/2fFA|G>AGB2f|c2BA2G|FfcA2
F:||
This file contains 100 reels (#101 - #200).
You can find more abc tune files at http://home1.swipnet.se/~w-11382/abc.htm
I've transcribed them as I have learnt them, which does not necessarily mean
that I play them that way nowadays. Many of the tunes include variations and
different versions. If there is a source (S:) or discography (D:) included the
version transcribed might still not be exactly as that source played the tune,
since I might have changed the tune around a bit when I learnt it.
The tunes were learnt from sessions, from friends or from recordings.
When I've included discography, it's often just a reference to what recordings
the tune appears on.
Last updated 10 August 1998.
(c) Copyright 1997-1998 Henrik Norbeck. This file:
- May be distributed freely (with restrictions below).
- May not be used for commercial purposes (such as printing a tune book to sell).
- This file (or parts of it) may not be made available on a web page for
download without permission from me.
- This copyright notice must be kept, except when e-mailing individual tunes.
- May be printed on paper for personal use.
- Questions? E-mail: henrik.norbeck@mailbox.swipnet.se


